X:1
T: Britain's Success
N:
C:
S:
A:
O:
R:
M:6/8
K:Am
I:speed 150
%W: A1
% voice 1 (1 lines, 41 notes)
K:Am
M:6/8
L:1/16
e2 |c3 d e2 f2 e2 d2 B2 c2 d2 e4 c2 A2 B2 c2 d e f2 e2 d2 c2 d2 B4 e2 |g4 ^f2 a4 g2 ^f2 g2 e2 ^d4 f2 g2 ^f2 e2 B4 ^d2 e6e4 e2 |
%W: A2
% voice 1 (1 lines, 40 notes)
c3 d e2 f2 e2 d2 B2 c2 d2 e4 c2 A2 B2 c2 d e f2 e2 d2 c2 d2 B4 e2 |g4 ^f2 a4 g2 ^f2 g2 e2 ^d4 f2 g2 ^f2 e2 B4 ^d2 e6e4 e2 |
%W: B1
% voice 1 (1 lines, 43 notes)
a2 g2 a2 d2 e2 f2 g2 f2 g2 c4 e2 f2 e2 f2 B2 c2 d2 e2 d2 e2 A4 B2 |c2 B2 c2 d2 c2 d2 e4 ^g2 a4 e2 f4 c2 B d c BB A A6A4 e2 |
%W: B2
% voice 1 (1 lines, 42 notes)
a2 g2 a2 d2 e2 f2 g2 f2 g2 c4 e2 f2 e2 f2 B2 c2 d2 e2 d2 e2 A4 B2 |c2 B2 c2 d2 c2 d2 e4 ^g2 a4 e2 f4 c2 B d c BB A A6A4 ||
